X: 52
T: The Blackthorn Stick
M: 6/8
L: 1/8
R: jig
K:Gmaj
d|"G"gfg "C"ege|"G"dBG "C"AGE|"G"DGG "D"FGA|"G"BGB "D"A2 d|
"G"gfg "C"age|"G"dBG "C"AGE|"G"DGG "D"FGA|"G"BGG G2:|
|:d|"C"edd "G"gdd|"C"edd "G"gdd|"C"ede "G"gag|"(Em)"edB "D"A2 d|
"G"gfg "C"age|"G"dBG "C"AGE|"G"DGG "D"FGA|"G"BGG G2:|


